X: 2
T: Karsilamas
M:9/8
L:1/8
Q:180
K:Eb
|: =BB BB Bd c2 B | =BBBB Bd c2 B | eeee ee d2 c | =BAGA Bc d2 d | =BBBB Bd c2 B | AGAGA=B G3 :|
|: G=BBc d2 d3   | eeee d2 c3   | eeee d2 c3   | =Bcdc BA G3 :||
